X:283
T:The Fairy Queen
R:hornpipe
M:4/4
L:1/8
K:Dmaj
d2 d>c d>BA>G | F>DF>A d>AF>A | G>AB>G E2 e>f | g>ec>e d>cB>A |
d2 d>c d>BA>G | F>DF>A d>AF>A | G>AB>G E2 e>f | g>ec>e d2- :|
d>fa>f g>ec>A | d>a^g>a b>ag>a | f>dA>F G2 e>f | g>e (3eee g>ec>A |
d>f (3fff g>fg>a | b>a^g>a b>ag>a | f>dA>F E2 e>f | g>ec>e d2- :|

